X: 53
T: No_47_Tea_Dance_Song_(b).krn
N: Derived from No_47_Tea_Dance_Song_(b).krn
%%abc-version 2.0
%%abcx-abcm2ps-target-version 5.9.1 (29 Sep 2008)
%%abc-creator hum2abc beta
%%abcx-conversion-date 2019/03/15 08:36:49
%%humdrum-veritas 3263747759
%%humdrum-veritas-data 101343006
%%linebreak <none>
%%barnumbers 0
L: 1/8
M: 2/4
%%staves {1 2}
V: 1 clef=bass
V: 2 clef=bass
K: G
[V:1] [K:clef=bass][M:2/4]G3/D/D2 | 
[V:2] [K:clef=bass][M:2/4](3!accent!G,, z G,, (3!accent!G,, z G,, | 
[V:1] G3/D/ DB, ||  
[V:2] z4 ||  
[V:1] [M:3/4]B,6 ||  
[V:2] [M:3/4]z6 ||  
[V:1] [M:2/4]GDD2 | 
[V:2] [M:2/4]z4 | 
[V:1] G3/D/ DB, ||  
[V:2] z4 ||  
[V:1] [M:3/4]B,6 ||  
[V:2] [M:3/4]z6 ||  
[V:1] [M:2/4]DB,B,2 ||  
[V:2] [M:2/4]z4 ||  
[V:1] [M:3/4]DB, B,3/G,/G,2 | 
[V:2] [M:3/4]z6 | 
[V:1] [M:2/4]B,3/A,/A,2 [I:setbarnb 10]||  
[V:2] [M:2/4]z4 ||  
[V:1] [M:3/4]B,3/A,/ B,G, G,D, ||  
[V:2] [M:3/4]z6 ||  
[V:1] [M:2/4]D,B,,B,,2- | 
[V:2] [M:2/4]z4 | 
[V:1] B,,4 | 
[V:2] z4 | 
[V:1] E,3/D,/D,2 | 
[V:2] z4 | 
[V:1] E,3/D,/ D,B,, ||  
[V:2] z4 ||  
[V:1] [M:3/4]B,,6 ||  
[V:2] [M:3/4]z6 ||  
[V:1] [M:2/4]D,B,,B,,2 | 
[V:2] [M:2/4]z4 | 
[V:1] D,B,, B,,A,, | 
[V:2] z4 | 
[V:1] B,,4 | 
[V:2] z4 | 
[V:1] B,,4 :|]  
[V:2] z4 :|]  



